**harm	**harte	**timestamp	**phrase	**leadinstrument	**kern
*M4/4	*M4/4	*	*	*	*
*E-:	*E-:	*	*	*	*E-:
1r;	N	0	.	r	1r;
=1	=1	=1	=1	=1	=1
*>A_verse	*>A_verse	*>A_verse	*>A_verse	*>A_verse	*>A_verse
1ii7	F:min9	0.255	newline	voice	1F 1a- 1cc 1ee-
=2	=2	=2	=2	=2	=2
1V7	B-:sus4(b7,9)	2.99	.	voice	1B- 1dd 1ff 1aa-
=3	=3	=3	=3	=3	=3
1I7	E-:maj7	5.725	.	voice	1E- 1g 1b- 1dd
=4	=4	=4	=4	=4	=4
2-VIIm7	D-:7	8.46	.	voice	2D- 2f 2a- 2cc
2VI7	C:7	9.828	.	voice	2C 2e 2g 2b-
=5	=5	=5	=5	=5	=5
1ii7	F:min9	11.195	newline	voice	1F 1a- 1cc 1ee-
=6	=6	=6	=6	=6	=6
1V7	B-:sus4(b7,9)	13.76	.	voice	1B- 1dd 1ff 1aa-
=7	=7	=7	=7	=7	=7
1I7	E-:maj7	16.326	.	voice	1E- 1g 1b- 1dd
=8	=8	=8	=8	=8	=8
1#IV7	A:7(#11)	18.891	.	voice	1A 1cc# 1ee 1gg
=9	=9	=9	=9	=9	=9
*>B_chorus	*>B_chorus	*>B_chorus	*>B_chorus	*>B_chorus	*>B_chorus
1IV7	A-:maj7	21.457	newline	voice	1A- 1cc 1ee- 1gg
=10	=10	=10	=10	=10	=10
1iii7	G:min7	24.039	.	voice	1G 1b- 1dd 1ff
=11	=11	=11	=11	=11	=11
1ii7	F:min7	26.621	.	voice	1F 1a- 1cc 1ee-
=12	=12	=12	=12	=12	=12
1vi	C:min	29.203	.	voice	1C 1e- 1g
=13	=13	=13	=13	=13	=13
1IV7	A-:maj7	31.785	newline	voice	1A- 1cc 1ee- 1gg
=14	=14	=14	=14	=14	=14
1iii7	G:min7	34.342	.	voice	1G 1b- 1dd 1ff
=15	=15	=15	=15	=15	=15
1-VIIm7	D-:7(#11)	36.899	.	voice	1D- 1f 1a- 1cc
=16	=16	=16	=16	=16	=16
1vi	C:min	39.456	.	voice	1C 1e- 1g
=17	=17	=17	=17	=17	=17
1II7	F:7	42.012	.	voice	1F 1a 1cc 1ee-
=18	=18	=18	=18	=18	=18
*>A_verse	*>A_verse	*>A_verse	*>A_verse	*>A_verse	*>A_verse
1ii7	F:min9	44.569	newline	voice	1F 1a- 1cc 1ee-
=19	=19	=19	=19	=19	=19
1V7	B-:sus4(b7,9)	47.141	.	voice	1B- 1dd 1ff 1aa-
=20	=20	=20	=20	=20	=20
1I7	E-:maj7	49.713	.	voice	1E- 1g 1b- 1dd
=21	=21	=21	=21	=21	=21
2-VIIm7	D-:7	52.285	.	voice	2D- 2f 2a- 2cc
2VI7	C:7	53.571	.	voice	2C 2e 2g 2b-
=22	=22	=22	=22	=22	=22
1ii7	F:min9	54.857	newline	voice	1F 1a- 1cc 1ee-
=23	=23	=23	=23	=23	=23
1V7	B-:sus4(b7,9)	57.405	.	voice	1B- 1dd 1ff 1aa-
=24	=24	=24	=24	=24	=24
1I7	E-:maj7	59.954	.	voice	1E- 1g 1b- 1dd
=25	=25	=25	=25	=25	=25
1#IV7	A:7(#11)	62.502	.	voice	1A 1cc# 1ee 1gg
=26	=26	=26	=26	=26	=26
*>B_chorus	*>B_chorus	*>B_chorus	*>B_chorus	*>B_chorus	*>B_chorus
1IV7	A-:maj7	65.051	newline	voice	1A- 1cc 1ee- 1gg
=27	=27	=27	=27	=27	=27
1iii7	G:min7	67.596	.	voice	1G 1b- 1dd 1ff
=28	=28	=28	=28	=28	=28
1ii7	F:min7	70.142	.	voice	1F 1a- 1cc 1ee-
=29	=29	=29	=29	=29	=29
1vi	C:min	72.687	.	voice	1C 1e- 1g
=30	=30	=30	=30	=30	=30
1IV7	A-:maj7	75.233	newline	voice	1A- 1cc 1ee- 1gg
=31	=31	=31	=31	=31	=31
1iii7	G:min7	77.8	.	voice	1G 1b- 1dd 1ff
=32	=32	=32	=32	=32	=32
1-VIIm7	D-:7(#11)	80.367	.	voice	1D- 1f 1a- 1cc
=33	=33	=33	=33	=33	=33
1vi	C:min	82.934	.	voice	1C 1e- 1g
=34	=34	=34	=34	=34	=34
1II7	F:7	85.501	.	voice	1F 1a 1cc 1ee-
=35	=35	=35	=35	=35	=35
*>A_verse	*>A_verse	*>A_verse	*>A_verse	*>A_verse	*>A_verse
1ii7	F:min9	88.068	newline	voice	1F 1a- 1cc 1ee-
=36	=36	=36	=36	=36	=36
1V7	B-:sus4(b7,9)	90.634	.	voice	1B- 1dd 1ff 1aa-
=37	=37	=37	=37	=37	=37
1I7	E-:maj7	93.2	.	voice	1E- 1g 1b- 1dd
=38	=38	=38	=38	=38	=38
2-VIIm7	D-:7	95.766	.	voice	2D- 2f 2a- 2cc
2VI7	C:7	97.049	.	voice	2C 2e 2g 2b-
=39	=39	=39	=39	=39	=39
1ii7	F:min9	98.332	newline	voice	1F 1a- 1cc 1ee-
=40	=40	=40	=40	=40	=40
1V7	B-:sus4(b7,9)	100.893	.	voice	1B- 1dd 1ff 1aa-
=41	=41	=41	=41	=41	=41
1I7	E-:maj7	103.455	.	voice	1E- 1g 1b- 1dd
=42	=42	=42	=42	=42	=42
1#IV7	A:7(#11)	106.017	.	voice	1A 1cc# 1ee 1gg
=43	=43	=43	=43	=43	=43
*>B_chorus	*>B_chorus	*>B_chorus	*>B_chorus	*>B_chorus	*>B_chorus
1IV7	A-:maj7	108.578	newline	voice	1A- 1cc 1ee- 1gg
=44	=44	=44	=44	=44	=44
1iii7	G:min7	111.119	.	voice	1G 1b- 1dd 1ff
=45	=45	=45	=45	=45	=45
1ii7	F:min7	113.661	.	voice	1F 1a- 1cc 1ee-
=46	=46	=46	=46	=46	=46
1vi	C:min	116.202	.	voice	1C 1e- 1g
=47	=47	=47	=47	=47	=47
1IV7	A-:maj7	118.743	newline	voice	1A- 1cc 1ee- 1gg
=48	=48	=48	=48	=48	=48
1iii7	G:min7	121.298	.	voice	1G 1b- 1dd 1ff
=49	=49	=49	=49	=49	=49
1-VIIm7	D-:7(#11)	123.853	.	voice	1D- 1f 1a- 1cc
=50	=50	=50	=50	=50	=50
1vi	C:min	126.408	.	voice	1C 1e- 1g
=51	=51	=51	=51	=51	=51
1II7	F:7	128.963	.	voice	1F 1a 1cc 1ee-
=52	=52	=52	=52	=52	=52
*>A_verse	*>A_verse	*>A_verse	*>A_verse	*>A_verse	*>A_verse
1ii7	F:min9	131.517	newline	voice	1F 1a- 1cc 1ee-
=53	=53	=53	=53	=53	=53
1V7	B-:sus4(b7,9)	134.071	.	voice	1B- 1dd 1ff 1aa-
=54	=54	=54	=54	=54	=54
1I7	E-:maj7	136.625	.	voice	1E- 1g 1b- 1dd
=55	=55	=55	=55	=55	=55
2-VIIm7	D-:7	139.178	.	voice	2D- 2f 2a- 2cc
2VI7	C:7	140.455	.	voice	2C 2e 2g 2b-
=56	=56	=56	=56	=56	=56
*>_fadeout	*>_fadeout	*>_fadeout	*>_fadeout	*>_fadeout	*>_fadeout
1ii7	F:min9	141.732	newline	voice	1F 1a- 1cc 1ee-
=57	=57	=57	=57	=57	=57
1V7	B-:sus4(b7,9)	144.288	.	voice	1B- 1dd 1ff 1aa-
=58	=58	=58	=58	=58	=58
1I7	E-:maj7	146.843	.	voice	1E- 1g 1b- 1dd
=59	=59	=59	=59	=59	=59
1#IV7	A:7(#11)	149.398	.	voice	1A 1cc# 1ee 1gg
=60	=60	=60	=60	=60	=60
*>B_chorus	*>B_chorus	*>B_chorus	*>B_chorus	*>B_chorus	*>B_chorus
1IV7	A-:maj7	151.954	newline	voice	1A- 1cc 1ee- 1gg
=61	=61	=61	=61	=61	=61
1iii7	G:min7	154.507	.	voice	1G 1b- 1dd 1ff
=62	=62	=62	=62	=62	=62
1ii7	F:min7	157.061	.	voice	1F 1a- 1cc 1ee-
=63	=63	=63	=63	=63	=63
1vi	C:min	159.614	.	voice	1C 1e- 1g
=64	=64	=64	=64	=64	=64
1IV7	A-:maj7	162.168	newline	voice	1A- 1cc 1ee- 1gg
=65	=65	=65	=65	=65	=65
1iii7	G:min7	164.341	.	voice	1G 1b- 1dd 1ff
=66	=66	=66	=66	=66	=66
1-VIIm7	D-:7(#11)	166.515	.	voice	1D- 1f 1a- 1cc
=67	=67	=67	=67	=67	=67
1vi	C:min	168.688	.	voice	1C 1e- 1g
=68	=68	=68	=68	=68	=68
1II7	F:7	170.862	.	voice	1F 1a 1cc 1ee-
1r;	N	173.035	.	r	1r;
1r;	N	177.45	.	r	1r;
*-	*-	*-	*-	*-	*-
!!!OTL: Feel Like Makin' Love
!!!COC: Roberta Flack
!!!BillboardChartDate: 1974/09/28, 1974/09/07, 1974/08/03
!!!BillboardPeak: 1, 1, 1
!!!BillboardWeeksOnChart: 16, 16, 16
!!!SampleTargetRank: 39, 10,  3
!!!SampleActualRank: 38, 11,  3
!!!SampleID#: 221, 454, 940
!!!RDF**harmony: **recip + pitch class of root + harmonic quality
!!!RDF**harte: Chris Harte's syntax, used by MIREX
!!!RDF**phrase: newline = linebreak in original McGill transcription
!!!RDF**timestamp: McGill audio timestamp in seconds
!!!RDF**leadinstrument: original McGill primary instrumentation annotation
!!!RDT: 2017/01/12/
!!!ENC: Nathaniel Condit-Schultz
!!!EST: Awating manual error checking and editing.
